dist/img/blog/4.svg

<svg width="25" height="25" viewBox="0 0 25 25" fill="none" xmlns="http://www.w3.org/2000/svg">
<g clip-path="url(#clip0_42_3249)">
<path d="M22.25 10.1807V14.5002H20.5222V11.5803L13.1361 15.269C12.8916 15.3922 12.6032 15.3922 12.3586 15.269L3.72004 10.9495C3.53044 10.8525 3.38336 10.6886 3.30716 10.4897C3.23095 10.2907 3.23095 10.0706 3.30716 9.87164C3.38338 9.67279 3.53046 9.50893 3.72004 9.41189L12.3586 5.09241C12.6032 4.9692 12.8916 4.9692 13.1361 5.09241L21.7747 9.41189C21.9172 9.48362 22.037 9.59353 22.1209 9.72919C22.2048 9.86485 22.2493 10.0212 22.2499 10.1807L22.25 10.1807ZM12.7473 16.2276C12.4802 16.2294 12.2167 16.1672 11.9785 16.0463L6.7001 13.4114V16.2276C6.7001 17.3732 7.15508 18.4719 7.96511 19.2819C8.77513 20.0919 9.87383 20.547 11.0194 20.547H14.4749C15.6205 20.547 16.7192 20.0919 17.5292 19.2819C18.3392 18.4719 18.7942 17.3732 18.7942 16.2276V13.4114L13.5158 16.0031C13.2815 16.139 13.0178 16.2161 12.747 16.2276H12.7473Z" fill="#202125"/>
</g>
<defs>
<clipPath id="clip0_42_3249">
<rect width="25" height="25" fill="white"/>
</clipPath>
</defs>
</svg>

<svg width="25" height="25" viewBox="0 0 25 25" fill="none" xmlns="http://www.w3.org/2000/svg"><g clip-path="url(#clip0_42_3249)"><path d="M22.25 10.18v4.32h-1.728v-2.92l-7.386 3.689a.864.864 0 01-.777 0l-8.639-4.32a.864.864 0 010-1.537l8.639-4.32a.864.864 0 01.777 0l8.639 4.32a.864.864 0 01.475.769zm-9.503 6.048c-.267.001-.53-.06-.768-.182L6.7 13.411v2.817a4.32 4.32 0 004.32 4.319h3.455a4.32 4.32 0 004.32-4.32v-2.816l-5.28 2.592a1.674 1.674 0 01-.768.225z" fill="#202125"/></g><defs><clipPath id="clip0_42_3249"><path fill="#fff" d="M0 0h25v25H0z"/></clipPath></defs></svg>
